X: 16634
T: Hangover P**, The
R: reel
M: 4/4
K: Amajor
e~A3 A2eA|AAeA fAgA|affe ffaf|ffaf ecBc|
e~A3 A2eA|AeeA fAgA|affe ffaf|ecBc ABcd:|
|:efaf ecBc|ec~c2 BcAB|cFFE FGAc|efaf ecBc|
efaf ecBc|ec~c2 BcAB|cFFE F2af|ecBc ABcd:|

